img/icons/reward/Group-1.svg

<svg width="60" height="60" viewBox="0 0 60 60" fill="none" xmlns="http://www.w3.org/2000/svg">
<path d="M47.1429 12.8571H27.8572C25.4903 12.8571 23.5715 14.7758 23.5715 17.1428V36.4285C23.5715 38.7954 25.4903 40.7142 27.8572 40.7142H47.1429C49.5098 40.7142 51.4286 38.7954 51.4286 36.4285V17.1428C51.4286 14.7758 49.5098 12.8571 47.1429 12.8571Z" stroke="#D6BD96" stroke-width="4.28571" stroke-linecap="round" stroke-linejoin="round"/>
<path d="M17.1429 51.4285H49.7572C50.8815 51.4333 51.9589 51.8796 52.7572 52.6714L57.8572 57.8571M17.1429 51.4285C17.1641 51.0717 17.1641 50.7139 17.1429 50.3571C17.0041 48.4307 16.1234 46.6334 14.6861 45.3433C13.2488 44.0532 11.3671 43.3711 9.43698 43.4405C7.50688 43.5099 5.67899 44.3255 4.33809 45.7155C2.99718 47.1055 2.24786 48.9615 2.24786 50.8928C2.24786 52.8242 2.99718 54.6802 4.33809 56.0702C5.67899 57.4602 7.50688 58.2757 9.43698 58.3451C11.3671 58.4146 13.2488 57.7324 14.6861 56.4424C16.1234 55.1523 17.0041 53.3549 17.1429 51.4285ZM2.14288 2.14282H6.4286C7.56524 2.14282 8.65533 2.59435 9.45906 3.39808C10.2628 4.20181 10.7143 5.29189 10.7143 6.42854V42.8571M36.4286 30H40.7143" stroke="#D6BD96" stroke-width="4.28571" stroke-linecap="round" stroke-linejoin="round"/>
</svg>

<svg width="60" height="60" fill="none" xmlns="http://www.w3.org/2000/svg"><path d="M47.143 12.857H27.857a4.286 4.286 0 0 0-4.285 4.286v19.285a4.286 4.286 0 0 0 4.285 4.286h19.286a4.286 4.286 0 0 0 4.286-4.285V17.142a4.286 4.286 0 0 0-4.286-4.286Zm-30 38.571h32.614a4.286 4.286 0 0 1 3 1.243l5.1 5.186M17.143 51.43a9.032 9.032 0 0 0 0-1.072 7.457 7.457 0 1 0 0 1.072Zm-15-49.286h4.286a4.286 4.286 0 0 1 4.285 4.286v36.428M36.43 30h4.285" stroke="#D6BD96" stroke-width="4.286" stroke-linecap="round" stroke-linejoin="round"/></svg>
